icons/select-column-16.svg

<?xml version="1.0" encoding="UTF-8"?><svg id="icons" xmlns="http://www.w3.org/2000/svg" viewBox="0 0 16 16"><defs><style>.cls-1{fill:none;}.cls-1,.cls-2,.cls-3{stroke-width:0px;}.cls-2{fill:#6f6f6f;opacity:.25;}</style></defs><rect class="cls-1" width="16" height="16"/><path class="cls-2" d="M0,1v14h16V1H0ZM1,6h2v2H1v-2ZM1,9h2v2H1v-2ZM1,14v-2h2v2H1ZM15,14H4v-2h5v-1h-5v-2h5v-1h-5v-2h5v-1H1v-3h14v12Z"/><path class="cls-3" d="M9,1v14h7V1h-7ZM15,14h-5v-2h5v2ZM15,11h-5v-2h5v2ZM15,8h-5v-2h5v2ZM15,5h-5v-3h5v3Z"/></svg>

<svg xmlns="http://www.w3.org/2000/svg" viewBox="0 0 16 16"><path stroke-width="0" fill="none" d="M0 0h16v16H0z"/><path d="M0 1v14h16V1H0zm1 5h2v2H1V6zm0 3h2v2H1V9zm0 5v-2h2v2H1zm14 0H4v-2h5v-1H4V9h5V8H4V6h5V5H1V2h14v12z" fill="#6f6f6f" opacity=".25" stroke-width="0"/><path d="M9 1v14h7V1H9zm6 13h-5v-2h5v2zm0-3h-5V9h5v2zm0-3h-5V6h5v2zm0-3h-5V2h5v3z" stroke-width="0"/></svg>
